assets/img/discord-brands.svg

<svg xmlns="http://www.w3.org/2000/svg" viewBox="0 0 640 512"><!--! Font Awesome Pro 6.0.0 by @fontawesome - https://fontawesome.com License - https://fontawesome.com/license (Commercial License) Copyright 2022 Fonticons, Inc. --><path d="M524.531,69.836a1.5,1.5,0,0,0-.764-.7A485.065,485.065,0,0,0,404.081,32.03a1.816,1.816,0,0,0-1.923.91,337.461,337.461,0,0,0-14.9,30.6,447.848,447.848,0,0,0-134.426,0,309.541,309.541,0,0,0-15.135-30.6,1.89,1.89,0,0,0-1.924-.91A483.689,483.689,0,0,0,116.085,69.137a1.712,1.712,0,0,0-.788.676C39.068,183.651,18.186,294.69,28.43,404.354a2.016,2.016,0,0,0,.765,1.375A487.666,487.666,0,0,0,176.02,479.918a1.9,1.9,0,0,0,2.063-.676A348.2,348.2,0,0,0,208.12,430.4a1.86,1.86,0,0,0-1.019-2.588,321.173,321.173,0,0,1-45.868-21.853,1.885,1.885,0,0,1-.185-3.126c3.082-2.309,6.166-4.711,9.109-7.137a1.819,1.819,0,0,1,1.9-.256c96.229,43.917,200.41,43.917,295.5,0a1.812,1.812,0,0,1,1.924.233c2.944,2.426,6.027,4.851,9.132,7.16a1.884,1.884,0,0,1-.162,3.126,301.407,301.407,0,0,1-45.89,21.83,1.875,1.875,0,0,0-1,2.611,391.055,391.055,0,0,0,30.014,48.815,1.864,1.864,0,0,0,2.063.7A486.048,486.048,0,0,0,610.7,405.729a1.882,1.882,0,0,0,.765-1.352C623.729,277.594,590.933,167.465,524.531,69.836ZM222.491,337.58c-28.972,0-52.844-26.587-52.844-59.239S193.056,219.1,222.491,219.1c29.665,0,53.306,26.82,52.843,59.239C275.334,310.993,251.924,337.58,222.491,337.58Zm195.38,0c-28.971,0-52.843-26.587-52.843-59.239S388.437,219.1,417.871,219.1c29.667,0,53.307,26.82,52.844,59.239C470.715,310.993,447.538,337.58,417.871,337.58Z"/></svg>

<?xml version="1.0" encoding="utf-8"?>
<svg width="640px" height="512px" viewBox="0 0 640 512" version="1.1" xmlns:xlink="http://www.w3.org/1999/xlink" xmlns="http://www.w3.org/2000/svg">
  <defs>
    <path d="M0 0L640 0L640 512L0 512L0 0Z" id="path_1" />
    <clipPath id="mask_1">
      <use xlink:href="#path_1" />
    </clipPath>
  </defs>
  <g id="discord-brands">
    <path d="M0 0L640 0L640 512L0 512L0 0Z" id="Background" fill="none" fill-rule="evenodd" stroke="none" />
    <g clip-path="url(#mask_1)">
      <path d="M524.531 69.836C524.368 69.5193 524.097 69.2712 523.767 69.136C485.644 51.6446 445.413 39.1719 404.081 32.03C403.311 31.8868 402.536 32.2537 402.158 32.94C396.68 42.883 391.707 53.0961 387.258 63.5403C342.704 56.7771 297.386 56.777 252.832 63.54C248.354 53.0692 243.301 42.8535 237.697 32.9396C237.303 32.2699 236.54 31.9091 235.773 32.03C194.437 39.1569 154.203 51.6306 116.085 69.137C115.759 69.2753 115.483 69.5115 115.297 69.813C39.068 183.651 18.186 294.69 28.43 404.354C28.4882 404.897 28.7643 405.393 29.195 405.729C73.5824 438.594 123.23 463.681 176.02 479.918C176.781 480.146 177.604 479.877 178.083 479.242C189.421 463.815 199.467 447.479 208.12 430.4C208.36 429.926 208.387 429.372 208.192 428.877C207.997 428.382 207.6 427.995 207.101 427.812C191.259 421.75 175.921 414.443 161.233 405.959C160.691 405.64 160.344 405.073 160.307 404.445C160.269 403.818 160.548 403.213 161.048 402.833C164.13 400.524 167.214 398.122 170.157 395.696C170.69 395.257 171.426 395.158 172.057 395.44C268.286 439.357 372.467 439.357 467.557 395.44C468.189 395.139 468.939 395.23 469.481 395.673C472.425 398.099 475.508 400.524 478.613 402.833C479.116 403.209 479.399 403.812 479.366 404.439C479.334 405.067 478.99 405.637 478.451 405.959C463.796 414.515 448.445 421.817 432.561 427.789C432.062 427.979 431.668 428.372 431.477 428.871C431.286 429.369 431.317 429.925 431.561 430.4C440.358 447.384 450.39 463.699 461.575 479.215C462.041 479.868 462.871 480.15 463.638 479.915C516.522 463.733 566.257 438.644 610.7 405.729C611.138 405.409 611.417 404.917 611.465 404.377C623.729 277.594 590.933 167.465 524.531 69.836L524.531 69.836ZM222.491 337.58C193.519 337.58 169.647 310.993 169.647 278.341C169.647 245.689 193.056 219.1 222.491 219.1C252.156 219.1 275.797 245.92 275.334 278.339C275.334 310.993 251.924 337.58 222.491 337.58L222.491 337.58ZM417.871 337.58C388.9 337.58 365.028 310.993 365.028 278.341C365.028 245.689 388.437 219.1 417.871 219.1C447.538 219.1 471.178 245.92 470.715 278.339C470.715 310.993 447.538 337.58 417.871 337.58L417.871 337.58Z" id="Shape" fill="#2359E3" fill-rule="evenodd" stroke="none" />
    </g>
  </g>
</svg>
